X:143
T:Flowers Yet to Grow
R:reel
C: 2009, 2010 L.E. McCullough 
M:4/4
L:1/8
K:E dorian
|: ~E3G BEGB | ~e3g fdBA | Bcde edcB | c~A3 B3D |
~E3G BEGB | ~e3g fdBA |1 B~G3 FGAB | AGFD ~E3D :|2 B~G3 A~F3| GFED ~E3F |]
|: ~G3A BA (3Bcd | eBgB edBA | (3Bcd eg fdfg | afgf ~e3f |
gBgf edBA  | dDFA (3Bcd BA |1 B~G3 FGAB | AGFD ~E3F :|2 B~G3 A~F3| GFED ~E3D|]
<end>
<start>
